icon-themes/sifr_svg/cmd/ca/sc_underline.svg

<svg viewBox="0 0 16 16" xmlns="http://www.w3.org/2000/svg"><path d="m8 2a3 3 0 0 0 -3 3 3 3 0 0 0 3 3h1a1 1 0 0 1 1 1 1 1 0 0 1 -1 1h-4v2h4a3 3 0 0 0 3-3 3 3 0 0 0 -3-3h-1a1 1 0 0 1 -1-1 1 1 0 0 1 1-1h3v-2zm-6 11v2h12v-2z" fill="#555753"/></svg>

<svg xmlns="http://www.w3.org/2000/svg" viewBox="0 0 16 16">
  <path
     style="fill:#555753"
     d="M 8 2 A 3 3 0 0 0 5 5 A 3 3 0 0 0 8 8 L 9 8 A 1 1 0 0 1 10 9 A 1 1 0 0 1 9 10 L 5 10 L 5 12 L 9 12 A 3 3 0 0 0 12 9 A 3 3 0 0 0 9 6 L 8 6 A 1 1 0 0 1 7 5 A 1 1 0 0 1 8 4 L 11 4 L 11 2 L 8 2 z M 2 13 L 2 15 L 14 15 L 14 13 L 2 13 z "
     />
</svg>
